client/public/img/game/weapons/cz75a.svg

<?xml version="1.0" encoding="UTF-8" standalone="no"?>
<svg
   width="110"
   height="110"
   viewBox="0 0 110 110"
   fill="none"
   version="1.1"
   id="svg45"
   sodipodi:docname="cz75a.svg"
   inkscape:version="1.1.2 (0a00cf5339, 2022-02-04)"
   xmlns:inkscape="http://www.inkscape.org/namespaces/inkscape"
   xmlns:sodipodi="http://sodipodi.sourceforge.net/DTD/sodipodi-0.dtd"
   xmlns="http://www.w3.org/2000/svg"
   xmlns:svg="http://www.w3.org/2000/svg">
  <sodipodi:namedview
     id="namedview47"
     pagecolor="#505050"
     bordercolor="#ffffff"
     borderopacity="1"
     inkscape:pageshadow="0"
     inkscape:pageopacity="0"
     inkscape:pagecheckerboard="1"
     showgrid="false"
     inkscape:zoom="7.9181818"
     inkscape:cx="55.442021"
     inkscape:cy="54.936854"
     inkscape:window-width="2560"
     inkscape:window-height="1372"
     inkscape:window-x="0"
     inkscape:window-y="0"
     inkscape:window-maximized="1"
     inkscape:current-layer="svg45" />
  <g
     clip-path="url(#clip0_619_1225)"
     id="g38"
     transform="matrix(0.83279691,0,0,0.83279691,8.9495122,8.6859199)">
    <path
       d="m 102.94,69.4593 5.175,-2.9877 c 0.174,-0.1004 0.216,-0.5303 0.232,-1.0038 0.045,-1.1275 -0.8,-2.0891 -1.953,-2.1774 l -1.47,-0.1367 c -1.358,-0.1434 -2.481,1.0263 -2.356,2.3461 z"
       fill="#898989"
       stroke="#343434"
       stroke-width="1.96464"
       stroke-miterlimit="3.99393"
       stroke-linecap="round"
       id="path2" />
    <path
       d="m 41.6981,49.4494 c 0,0 1.3334,5.724 6.6746,5.1335 0.1991,-0.057 0.3663,-0.2695 0.2475,-0.3748 -1.5359,-0.8527 -5.8143,-3.5429 -3.7194,-7.2456 z"
       fill="#3b3b3b"
       stroke="#343434"
       stroke-width="1.96464"
       stroke-miterlimit="3.99393"
       stroke-linecap="round"
       id="path4" />
    <path
       d="m 56.9029,38.9311 39.7156,33.1382 c 0.3062,0.2291 0.6927,0.2959 1.0406,0.095 l 4.6529,-2.6864 c 0.217,-0.1255 0.366,-0.2694 0.44,-0.5438 l 1.47,-5.4874 c 0.092,-0.343 0.003,-0.6976 -0.278,-0.8832 L 67.6649,30.4564 C 67.3587,30.2273 66.9722,30.1605 66.6678,30.3363 L 56.1223,35.671 c -0.4349,0.2511 -0.5819,0.7998 -0.3309,1.2347 l 0.9792,1.6959 c -0.0368,0.1372 0.082,0.2426 0.1323,0.3295 z"
       fill="#5a5a5a"
       stroke="#343434"
       stroke-width="3.92927"
       stroke-miterlimit="3.99393"
       stroke-linecap="round"
       id="path6" />
    <path
       d="M 54.1433,39.7722 71.5376,29.7295 c 0.8262,-0.477 1.7865,-0.2197 2.2134,0.5196 l 0.6527,1.1306 c 0.452,0.7828 0.1695,1.6996 -0.6567,2.1766 L 54.9176,44.4275 53.4865,41.9488 c -0.3833,-0.7644 -0.1511,-1.7682 0.6568,-2.1766 z"
       fill="#424242"
       stroke="#343434"
       stroke-width="1.96464"
       stroke-miterlimit="3.99393"
       id="path8" />
    <path
       d="m 41.9509,91.2707 -11.5336,7.2423 3.5846,4.958 c 0,0 -5.4618,2.619 -3.9904,2.591 1.4713,-0.029 18.5545,-10.9793 19.2588,-12.3371 0.7044,-1.3578 -3.9714,2.4741 -3.9714,2.4741 z"
       fill="#5a5a5a"
       id="path10" />
    <path
       d="m 30.4173,98.513 11.5336,-7.2423 m -11.5336,7.2423 -4e-4,-5e-4 m 4e-4,5e-4 3.5846,4.958 m 7.949,-12.2003 -11.534,7.2418 m 11.534,-7.2418 3.348,4.9283 c 0,0 4.6758,-3.8319 3.9714,-2.4741 -0.7043,1.3578 -17.7875,12.3081 -19.2588,12.3371 -1.4714,0.028 3.9904,-2.591 3.9904,-2.591 m 0,0 -3.585,-4.9585"
       stroke="#333333"
       stroke-width="3.92927"
       stroke-miterlimit="3.99393"
       stroke-linecap="round"
       id="path12" />
    <path
       d="M 75.3362,13.1556 88.93,5.30718 c 0.5852,-0.33785 1.3314,-0.18885 1.6829,0.41995 l 1.5817,2.73962 C 92.521,9.03207 92.347,9.7703 91.7168,10.1341 L 78.123,17.9825 c -0.5852,0.3379 -1.3314,0.1889 -1.6829,-0.4199 L 74.8584,14.823 C 74.577,14.2317 74.751,13.4934 75.3362,13.1556 Z"
       fill="#898989"
       stroke="#343434"
       stroke-width="3.92927"
       stroke-miterlimit="3.99393"
       stroke-linecap="round"
       id="path14" />
    <path
       d="M 70.2135,13.6786 10.7248,48.0244 c -0.2175,0.1255 -0.4098,0.2945 -0.5703,0.6191 -0.56169,1.1361 -1.87202,4.7917 0.0863,8.1836 1.1549,2.0003 0.7842,4.0698 0.0504,5.7111 -0.51827,1.1109 0.5461,2.3518 1.7036,2.1474 2.4707,-0.4408 5.3981,-0.3915 6.406,2.1576 1.6692,4.1966 2.2463,9.3137 2.3369,10.0731 0.1305,1.0946 -0.1315,12.426 4.7643,20.9058 0,0 1.2612,4.8959 7.5667,1.2555 5.0443,-2.9123 10.7625,-6.9675 12.6723,-8.8818 0.3595,-0.3815 0.3375,-1.1226 -0.131,-1.4319 -0.5187,-0.3963 -1.188,-1.0535 -1.6117,-2.4904 l -5.478,-18.9282 c 0,0 -1.2531,-4.08 4.7135,-5.4955 5.6989,-1.3769 12.6098,-5.1724 15.3148,-10.329 0.2223,-0.4183 -0.0801,-1.1429 -0.306,-1.5343 L 54.857,43.7733 c -0.221,-0.6841 -1.4305,-3.9361 0.9496,-5.1363 2.2864,-1.262 12.0456,-6.9545 14.4808,-8.3605 0.5218,-0.3012 0.7375,-0.8316 0.6603,-1.3669 -0.0771,-0.5353 0.1569,-1.1342 0.6353,-1.4104 l 6.4359,-3.7158 c 0.1304,-0.0753 0.2174,-0.1255 0.3228,-0.2443 0.4465,-0.4317 1.3377,-1.7001 0.3334,-3.4395 l -4.1928,-7.2622 c -0.3515,-0.6088 -1.1997,-0.8728 -1.852,-0.4962 0.0184,-0.0686 -2.4168,1.3374 -2.4168,1.3374 z M 56.549,50.5943 c 1.1883,2.7928 -6.7484,7.5768 -7.881,8.1181 -0.8388,0.4009 -6.3004,2.6429 -8.6734,-0.1617 -2.0166,-2.4886 -1.7615,-6.3859 -0.4875,-7.3721 l 9.0997,-6.9352 c 1.5704,-1.1966 2.7272,-0.7573 3.9368,-0.47 0.343,0.0919 1.3115,0.8865 1.5123,1.2344 0.5363,0.9288 1.5993,3.2034 2.4931,5.5865 z"
       fill="#4d4d4d"
       id="path16" />
    <path
       d="m 31.7375,99.7568 8.6471,-5.4823 c 0.5653,-0.3264 0.6554,-1.0742 0.2855,-1.6144 -0.4385,-0.5586 -1.0594,-1.5337 -1.8377,-2.8818 -1.2805,-2.2177 -1.4549,-3.6245 -1.3764,-4.1917 0.03,-0.2492 0.0349,-0.542 -0.0471,-0.7845 L 31.7514,59.1357 c -0.4524,-2.29 -3.0424,-3.4618 -5.0862,-2.2818 l -7.5665,4.3685 c -2.4248,1.4912 -2.2156,3.1276 -1.8542,4.0871 0.4903,0.3615 0.8904,0.8604 1.1566,1.5337 1.6295,4.097 2.2183,9.0712 2.3296,10.0118 0.1258,1.0633 -0.1242,12.4873 4.7716,20.9671 0,0 0.3183,1.2356 1.4344,2.0038 0.6767,0.3671 1.3349,0.5371 1.923,0.5961 0.7782,0.021 1.7264,-0.161 2.8778,-0.6652 z"
       fill="#3a3a3a"
       stroke="#343434"
       stroke-width="1.96464"
       stroke-miterlimit="3.99393"
       stroke-linecap="round"
       id="path18" />
    <path
       fill-rule="evenodd"
       clip-rule="evenodd"
       d="M 64.0866,24.0563 9.64228,55.4898 C 8.47704,52.5677 10.376,48.2243 10.376,48.2243 l 62.4951,-36.0815 1.4032,0.3351 4.5506,7.8817 c 1.2302,2.1308 -0.6581,3.279 -0.6581,3.279 l -7.4795,4.3183 c 0.1506,0.261 0.2075,0.46 0.1775,0.7093 -0.0797,1.6695 -1.6905,2.1936 -1.6905,2.1936 0,0 0.5375,1.835 -0.6743,-0.3644 -0.5553,-0.9618 -1.0935,-1.6384 -1.4019,-2.0261 -0.1238,-0.1557 -0.2107,-0.2648 -0.2466,-0.3271 z"
       fill="#404040"
       id="path20" />
    <path
       d="m 78.8249,20.3596 c 1.2302,2.1308 -0.6581,3.279 -0.6581,3.279 l -7.4795,4.3183 c 0.1506,0.261 0.2075,0.46 0.1775,0.7093 -0.0797,1.6695 -1.6905,2.1936 -1.6905,2.1936 0,0 0.5375,1.835 -0.6743,-0.3644 -0.5553,-0.9618 -1.0935,-1.6384 -1.4019,-2.0261 -0.1238,-0.1557 -0.2107,-0.2648 -0.2466,-0.3271 L 64.0866,24.0563 9.64228,55.4898 C 8.47704,52.5677 10.376,48.2243 10.376,48.2243 l 62.4951,-36.0815 1.4032,0.3351 m 4.5506,7.8817 c -0.9566,-1.6569 -3.4768,-6.022 -4.5506,-7.8817 m 4.5506,7.8817 -4.5506,-7.8817"
       stroke="#343434"
       stroke-width="1.96464"
       stroke-miterlimit="3.99393"
       stroke-linecap="round"
       id="path22" />
    <path
       d="m 35.025,39.0972 7.0012,-4.0422 c 0,0 3.1691,-3.0473 2.3473,-4.3702 -0.8218,-1.323 -3.3256,0.0646 -3.3256,0.0646 l -6.8273,3.9417 c 0,0 -1.0535,1.1881 -0.5514,2.0578 z"
       fill="#898989"
       stroke="#343434"
       stroke-width="1.96464"
       stroke-miterlimit="3.99393"
       stroke-linecap="round"
       id="path24" />
    <path
       d="m 12.4976,43.4645 c -0.208,-0.3602 -0.6687,-0.4837 -1.0289,-0.2757 -0.3603,0.208 -0.4837,0.6687 -0.2757,1.0289 l 1.1051,1.9141 c 0.208,0.3603 0.6686,0.4837 1.0289,0.2757 0.3602,-0.208 0.4837,-0.6686 0.2757,-1.0289 z"
       fill="#424242"
       stroke="#333333"
       stroke-width="1.96464"
       stroke-miterlimit="3.99393"
       stroke-linecap="round"
       id="path26" />
    <path
       fill-rule="evenodd"
       clip-rule="evenodd"
       d="m 70.088,9.94597 c -0.8317,0.48023 -1.1167,1.54373 -0.6365,2.37543 0.4802,0.8317 1.5437,1.1167 2.3754,0.6365 0.8317,-0.4802 1.1167,-1.5437 0.6365,-2.3754 C 71.9832,9.75074 70.9197,9.46578 70.088,9.94597 Z m 0.462,1.74123 c -0.1299,-0.2251 -0.0528,-0.5128 0.1722,-0.6427 0.225,-0.1299 0.5128,-0.0528 0.6427,0.1722 0.1299,0.225 0.0528,0.5127 -0.1722,0.6427 -0.225,0.1299 -0.5128,0.0528 -0.6427,-0.1722 z"
       fill="#424242"
       stroke="#333333"
       stroke-width="1.96464"
       stroke-miterlimit="3.99393"
       stroke-linecap="round"
       id="path28" />
    <path
       d="M 7.18653,57.8953 C 6.07199,56.5674 4.34552,56.2886 3.16648,57.2592 c -1.16067,0.9021 -1.2337,2.6837 -0.21286,3.9497 1.02085,1.266 2.7908,1.5197 3.95146,0.6177 0.19233,-0.169 0.35954,-0.3815 0.52676,-0.594 0.77109,-0.2713 1.71023,-0.383 3.53716,0.0697 l -0.0073,-3.1034 c -0.9365,0.1705 -2.44296,0.2862 -3.77517,-0.3036 z m -2.63607,1.0581 c 0.32279,-0.2443 0.77783,-0.1592 1.06565,0.1385 0.26945,0.3663 0.25287,0.8397 -0.06991,1.084 C 5.24853,60.4638 4.71454,60.4295 4.4451,60.0632 4.13216,59.7221 4.27117,59.1726 4.55046,58.9534 Z"
       fill="#424242"
       stroke="#333333"
       stroke-width="1.96464"
       stroke-miterlimit="3.99393"
       id="path30" />
    <path
       d="m 48.6689,58.7121 c 1.1326,-0.5413 9.0693,-5.3252 7.881,-8.1181 -0.8937,-2.383 -1.9568,-4.6576 -2.493,-5.5865 -0.2009,-0.3478 -1.1694,-1.1424 -1.5124,-1.2343 -1.2095,-0.2874 -2.3664,-0.7267 -3.9368,0.4699 l -9.0997,6.9352 c -1.274,0.9862 -1.5291,4.8835 0.4875,7.3721 2.373,2.8046 7.8346,0.5626 8.6734,0.1617 z"
       stroke="#333333"
       stroke-width="1.96464"
       stroke-miterlimit="3.99393"
       id="path32" />
    <path
       d="m 34.2716,37.7949 0.7516,1.3017 c -0.0138,0.0092 -0.028,0.018 -0.0425,0.0264 l -8.7842,5.0716 c -0.3602,0.208 -0.8209,0.0845 -1.0289,-0.2757 -0.208,-0.3603 -0.0845,-0.8209 0.2757,-1.0289 l 8.7842,-5.0715 c 0.0145,-0.0084 0.0292,-0.0163 0.0441,-0.0236 z"
       fill="#383838"
       stroke="#333333"
       stroke-width="1.96464"
       stroke-miterlimit="3.99393"
       stroke-linecap="round"
       id="path34" />
    <path
       d="M 10.7248,48.0244 70.2135,13.6786 c 0,0 2.4352,-1.406 2.4168,-1.3374 0.6523,-0.3766 1.5005,-0.1126 1.852,0.4962 l 4.1928,7.2622 c 1.0043,1.7394 0.1131,3.0078 -0.3334,3.4395 -0.1054,0.1188 -0.1923,0.169 -0.3228,0.2443 l -6.4359,3.7158 c -0.4784,0.2762 -0.7124,0.8751 -0.6353,1.4104 0.0772,0.5353 -0.1385,1.0657 -0.6603,1.3669 -2.4352,1.406 -12.1944,7.0985 -14.4808,8.3605 -2.3801,1.2002 -1.1706,4.4522 -0.9496,5.1363 l 3.3856,6.2132 c 0.2259,0.3914 0.5283,1.116 0.306,1.5343 -2.705,5.1566 -9.6159,8.9521 -15.3148,10.329 -5.9666,1.4155 -4.7135,5.4955 -4.7135,5.4955 l 5.478,18.9282 c 0.4237,1.4369 1.093,2.0941 1.6117,2.4904 0.4685,0.3093 0.4905,1.0504 0.131,1.4319 -1.9098,1.9143 -7.628,5.9695 -12.6723,8.8818 C 26.7632,102.718 25.502,97.8221 25.502,97.8221 20.6062,89.3423 20.8682,78.0109 20.7377,76.9163 20.6471,76.1569 20.07,71.0398 18.4008,66.8432 17.3929,64.2941 14.4655,64.2448 11.9948,64.6856 10.8373,64.89 9.77293,63.6491 10.2912,62.5382 11.025,60.8969 11.3957,58.8274 10.2408,56.8271 8.28248,53.4352 9.59281,49.7796 10.1545,48.6435 c 0.1605,-0.3246 0.3528,-0.4936 0.5703,-0.6191 z"
       stroke="#333333"
       stroke-width="3.93"
       stroke-miterlimit="3.99393"
       id="path36" />
  </g>
  <defs
     id="defs43">
    <clipPath
       id="clip0_619_1225">
      <rect
         width="110"
         height="110"
         fill="#ffffff"
         transform="translate(0.0859375)"
         id="rect40"
         x="0"
         y="0" />
    </clipPath>
  </defs>
</svg>

<svg width="111" height="110" viewBox="0 0 111 110" fill="none" xmlns="http://www.w3.org/2000/svg">
<g clip-path="url(#clip0_619_1225)">
<path d="M102.94 69.4593L108.115 66.4716C108.289 66.3712 108.331 65.9413 108.347 65.4678C108.392 64.3403 107.547 63.3787 106.394 63.2904L104.924 63.1537C103.566 63.0103 102.443 64.18 102.568 65.4998L102.94 69.4593Z" fill="#898989" stroke="#343434" stroke-width="1.96464" stroke-miterlimit="3.99393" stroke-linecap="round"/>
<path d="M41.6981 49.4494C41.6981 49.4494 43.0315 55.1734 48.3727 54.5829C48.5718 54.5259 48.739 54.3134 48.6202 54.2081C47.0843 53.3554 42.8059 50.6652 44.9008 46.9625L41.6981 49.4494Z" fill="#3B3B3B" stroke="#343434" stroke-width="1.96464" stroke-miterlimit="3.99393" stroke-linecap="round"/>
<path d="M56.9029 38.9311L96.6185 72.0693C96.9247 72.2984 97.3112 72.3652 97.6591 72.1643L102.312 69.4779C102.529 69.3524 102.678 69.2085 102.752 68.9341L104.222 63.4467C104.314 63.1037 104.225 62.7491 103.944 62.5635L67.6649 30.4564C67.3587 30.2273 66.9722 30.1605 66.6678 30.3363L56.1223 35.671C55.6874 35.9221 55.5404 36.4708 55.7914 36.9057L56.7706 38.6016C56.7338 38.7388 56.8526 38.8442 56.9029 38.9311Z" fill="#5A5A5A" stroke="#343434" stroke-width="3.92927" stroke-miterlimit="3.99393" stroke-linecap="round"/>
<path d="M54.1433 39.7722L71.5376 29.7295C72.3638 29.2525 73.3241 29.5098 73.751 30.2491L74.4037 31.3797C74.8557 32.1625 74.5732 33.0793 73.747 33.5563L54.9176 44.4275L53.4865 41.9488C53.1032 41.1844 53.3354 40.1806 54.1433 39.7722Z" fill="#424242" stroke="#343434" stroke-width="1.96464" stroke-miterlimit="3.99393"/>
<path d="M41.9509 91.2707L30.4173 98.513L34.0019 103.471C34.0019 103.471 28.5401 106.09 30.0115 106.062C31.4828 106.033 48.566 95.0827 49.2703 93.7249C49.9747 92.3671 45.2989 96.199 45.2989 96.199L41.9509 91.2707Z" fill="#5A5A5A"/>
<path d="M30.4173 98.513L41.9509 91.2707M30.4173 98.513L30.4169 98.5125M30.4173 98.513L34.0019 103.471M41.9509 91.2707L30.4169 98.5125M41.9509 91.2707L45.2989 96.199C45.2989 96.199 49.9747 92.3671 49.2703 93.7249C48.566 95.0827 31.4828 106.033 30.0115 106.062C28.5401 106.09 34.0019 103.471 34.0019 103.471M34.0019 103.471L30.4169 98.5125" stroke="#333333" stroke-width="3.92927" stroke-miterlimit="3.99393" stroke-linecap="round"/>
<path d="M75.3362 13.1556L88.93 5.30718C89.5152 4.96933 90.2614 5.11833 90.6129 5.72713L92.1946 8.46675C92.521 9.03207 92.347 9.7703 91.7168 10.1341L78.123 17.9825C77.5378 18.3204 76.7916 18.1714 76.4401 17.5626L74.8584 14.823C74.577 14.2317 74.751 13.4934 75.3362 13.1556Z" fill="#898989" stroke="#343434" stroke-width="3.92927" stroke-miterlimit="3.99393" stroke-linecap="round"/>
<path d="M70.2135 13.6786L10.7248 48.0244C10.5073 48.1499 10.315 48.3189 10.1545 48.6435C9.59281 49.7796 8.28248 53.4352 10.2408 56.8271C11.3957 58.8274 11.025 60.8969 10.2912 62.5382C9.77293 63.6491 10.8373 64.89 11.9948 64.6856C14.4655 64.2448 17.3929 64.2941 18.4008 66.8432C20.07 71.0398 20.6471 76.1569 20.7377 76.9163C20.8682 78.0109 20.6062 89.3423 25.502 97.8221C25.502 97.8221 26.7632 102.718 33.0687 99.0776C38.113 96.1653 43.8312 92.1101 45.741 90.1958C46.1005 89.8143 46.0785 89.0732 45.61 88.7639C45.0913 88.3676 44.422 87.7104 43.9983 86.2735L38.5203 67.3453C38.5203 67.3453 37.2672 63.2653 43.2338 61.8498C48.9327 60.4729 55.8436 56.6774 58.5486 51.5208C58.7709 51.1025 58.4685 50.3779 58.2426 49.9865L54.857 43.7733C54.636 43.0892 53.4265 39.8372 55.8066 38.637C58.093 37.375 67.8522 31.6825 70.2874 30.2765C70.8092 29.9753 71.0249 29.4449 70.9477 28.9096C70.8706 28.3743 71.1046 27.7754 71.583 27.4992L78.0189 23.7834C78.1493 23.7081 78.2363 23.6579 78.3417 23.5391C78.7882 23.1074 79.6794 21.839 78.6751 20.0996L74.4823 12.8374C74.1308 12.2286 73.2826 11.9646 72.6303 12.3412C72.6487 12.2726 70.2135 13.6786 70.2135 13.6786ZM56.549 50.5943C57.7373 53.3871 49.8006 58.1711 48.668 58.7124C47.8292 59.1133 42.3676 61.3553 39.9946 58.5507C37.978 56.0621 38.2331 52.1648 39.5071 51.1786L48.6068 44.2434C50.1772 43.0468 51.334 43.4861 52.5436 43.7734C52.8866 43.8653 53.8551 44.6599 54.0559 45.0078C54.5922 45.9366 55.6552 48.2112 56.549 50.5943Z" fill="#4D4D4D"/>
<path d="M31.7375 99.7568L40.3846 94.2745C40.9499 93.9481 41.04 93.2003 40.6701 92.6601C40.2316 92.1015 39.6107 91.1264 38.8324 89.7783C37.5519 87.5606 37.3775 86.1538 37.456 85.5866C37.486 85.3374 37.4909 85.0446 37.4089 84.8021L31.7514 59.1357C31.299 56.8457 28.709 55.6739 26.6652 56.8539L19.0987 61.2224C16.6739 62.7136 16.8831 64.35 17.2445 65.3095C17.7348 65.671 18.1349 66.1699 18.4011 66.8432C20.0306 70.9402 20.6194 75.9144 20.7307 76.855C20.8565 77.9183 20.6065 89.3423 25.5023 97.8221C25.5023 97.8221 25.8206 99.0577 26.9367 99.8259C27.6134 100.193 28.2716 100.363 28.8597 100.422C29.6379 100.443 30.5861 100.261 31.7375 99.7568Z" fill="#3A3A3A" stroke="#343434" stroke-width="1.96464" stroke-miterlimit="3.99393" stroke-linecap="round"/>
<path fill-rule="evenodd" clip-rule="evenodd" d="M64.0866 24.0563L9.64228 55.4898C8.47704 52.5677 10.376 48.2243 10.376 48.2243L72.8711 12.1428L74.2743 12.4779L78.8249 20.3596C80.0551 22.4904 78.1668 23.6386 78.1668 23.6386L70.6873 27.9569C70.8379 28.2179 70.8948 28.4169 70.8648 28.6662C70.7851 30.3357 69.1743 30.8598 69.1743 30.8598C69.1743 30.8598 69.7118 32.6948 68.5 30.4954C67.9447 29.5336 67.4065 28.857 67.0981 28.4693C66.9743 28.3136 66.8874 28.2045 66.8515 28.1422L64.0866 24.0563Z" fill="#404040"/>
<path d="M78.8249 20.3596C80.0551 22.4904 78.1668 23.6386 78.1668 23.6386L70.6873 27.9569C70.8379 28.2179 70.8948 28.4169 70.8648 28.6662C70.7851 30.3357 69.1743 30.8598 69.1743 30.8598C69.1743 30.8598 69.7118 32.6948 68.5 30.4954C67.9447 29.5336 67.4065 28.857 67.0981 28.4693C66.9743 28.3136 66.8874 28.2045 66.8515 28.1422L64.0866 24.0563L9.64228 55.4898C8.47704 52.5677 10.376 48.2243 10.376 48.2243L72.8711 12.1428L74.2743 12.4779M78.8249 20.3596C77.8683 18.7027 75.3481 14.3376 74.2743 12.4779M78.8249 20.3596L74.2743 12.4779" stroke="#343434" stroke-width="1.96464" stroke-miterlimit="3.99393" stroke-linecap="round"/>
<path d="M35.025 39.0972L42.0262 35.055C42.0262 35.055 45.1953 32.0077 44.3735 30.6848C43.5517 29.3618 41.0479 30.7494 41.0479 30.7494L34.2206 34.6911C34.2206 34.6911 33.1671 35.8792 33.6692 36.7489L35.025 39.0972Z" fill="#898989" stroke="#343434" stroke-width="1.96464" stroke-miterlimit="3.99393" stroke-linecap="round"/>
<path d="M12.4976 43.4645C12.2896 43.1043 11.8289 42.9808 11.4687 43.1888C11.1084 43.3968 10.985 43.8575 11.193 44.2177L12.2981 46.1318C12.5061 46.4921 12.9667 46.6155 13.327 46.4075C13.6872 46.1995 13.8107 45.7389 13.6027 45.3786L12.4976 43.4645Z" fill="#424242" stroke="#333333" stroke-width="1.96464" stroke-miterlimit="3.99393" stroke-linecap="round"/>
<path fill-rule="evenodd" clip-rule="evenodd" d="M70.088 9.94597C69.2563 10.4262 68.9713 11.4897 69.4515 12.3214C69.9317 13.1531 70.9952 13.4381 71.8269 12.9579C72.6586 12.4777 72.9436 11.4142 72.4634 10.5825C71.9832 9.75074 70.9197 9.46578 70.088 9.94597ZM70.55 11.6872C70.4201 11.4621 70.4972 11.1744 70.7222 11.0445C70.9472 10.9146 71.235 10.9917 71.3649 11.2167C71.4948 11.4417 71.4177 11.7294 71.1927 11.8594C70.9677 11.9893 70.6799 11.9122 70.55 11.6872Z" fill="#424242" stroke="#333333" stroke-width="1.96464" stroke-miterlimit="3.99393" stroke-linecap="round"/>
<path d="M7.18653 57.8953C6.07199 56.5674 4.34552 56.2886 3.16648 57.2592C2.00581 58.1613 1.93278 59.9429 2.95362 61.2089C3.97447 62.4749 5.74442 62.7286 6.90508 61.8266C7.09741 61.6576 7.26462 61.4451 7.43184 61.2326C8.20293 60.9613 9.14207 60.8496 10.969 61.3023L10.9617 58.1989C10.0252 58.3694 8.51874 58.4851 7.18653 57.8953ZM4.55046 58.9534C4.87325 58.7091 5.32829 58.7942 5.61611 59.0919C5.88556 59.4582 5.86898 59.9316 5.5462 60.1759C5.24853 60.4638 4.71454 60.4295 4.4451 60.0632C4.13216 59.7221 4.27117 59.1726 4.55046 58.9534Z" fill="#424242" stroke="#333333" stroke-width="1.96464" stroke-miterlimit="3.99393"/>
<path d="M48.6689 58.7121C49.8015 58.1708 57.7382 53.3869 56.5499 50.594C55.6562 48.211 54.5931 45.9364 54.0569 45.0075C53.856 44.6597 52.8875 43.8651 52.5445 43.7732C51.335 43.4858 50.1781 43.0465 48.6077 44.2431L39.508 51.1783C38.234 52.1645 37.9789 56.0618 39.9955 58.5504C42.3685 61.355 47.8301 59.113 48.6689 58.7121Z" stroke="#333333" stroke-width="1.96464" stroke-miterlimit="3.99393"/>
<path d="M34.2716 37.7949L35.0232 39.0966C35.0094 39.1058 34.9952 39.1146 34.9807 39.123L26.1965 44.1946C25.8363 44.4026 25.3756 44.2791 25.1676 43.9189C24.9596 43.5586 25.0831 43.098 25.4433 42.89L34.2275 37.8185C34.242 37.8101 34.2567 37.8022 34.2716 37.7949Z" fill="#383838" stroke="#333333" stroke-width="1.96464" stroke-miterlimit="3.99393" stroke-linecap="round"/>
<path d="M10.7248 48.0244L70.2135 13.6786C70.2135 13.6786 72.6487 12.2726 72.6303 12.3412C73.2826 11.9646 74.1308 12.2286 74.4823 12.8374L78.6751 20.0996C79.6794 21.839 78.7882 23.1074 78.3417 23.5391C78.2363 23.6579 78.1494 23.7081 78.0189 23.7834L71.583 27.4992C71.1046 27.7754 70.8706 28.3743 70.9477 28.9096C71.0249 29.4449 70.8092 29.9753 70.2874 30.2765C67.8522 31.6825 58.093 37.375 55.8066 38.637C53.4265 39.8372 54.636 43.0892 54.857 43.7733L58.2426 49.9865C58.4685 50.3779 58.7709 51.1025 58.5486 51.5208C55.8436 56.6774 48.9327 60.4729 43.2338 61.8498C37.2672 63.2653 38.5203 67.3453 38.5203 67.3453L43.9983 86.2735C44.422 87.7104 45.0913 88.3676 45.61 88.7639C46.0785 89.0732 46.1005 89.8143 45.741 90.1958C43.8312 92.1101 38.113 96.1653 33.0687 99.0776C26.7632 102.718 25.502 97.8221 25.502 97.8221C20.6062 89.3423 20.8682 78.0109 20.7377 76.9163C20.6471 76.1569 20.07 71.0398 18.4008 66.8432C17.3929 64.2941 14.4655 64.2448 11.9948 64.6856C10.8373 64.89 9.77293 63.6491 10.2912 62.5382C11.025 60.8969 11.3957 58.8274 10.2408 56.8271C8.28248 53.4352 9.59281 49.7796 10.1545 48.6435C10.315 48.3189 10.5073 48.1499 10.7248 48.0244Z" stroke="#333333" stroke-width="3.93" stroke-miterlimit="3.99393"/>
</g>
<defs>
<clipPath id="clip0_619_1225">
<rect width="110" height="110" fill="white" transform="translate(0.0859375)"/>
</clipPath>
</defs>
</svg>
